X: 6
T: Macleod's Farewell
R: reel
M: 4/4
L: 1/8
K: Dmaj
|:F2 BF AFEF | D3E FABd | e2 fd efdB | ABde dBAG |
F2 BF AFEF | D3E FABd | e2 fd efdB | ABde d4 :||
|:A3 f edfd | A3 f edfd | ABdA BdAB | dBAF EFDE |
F2 BF AFEF | D3E FABd | e2 fd efdB | ABde d4 :||


Tune 518	Setting 28215

